communes/88.svg

<?xml version="1.0" encoding="UTF-8" standalone="no"?>
<!-- Created with Inkscape (http://www.inkscape.org/) -->
<svg
   xmlns:svg="http://www.w3.org/2000/svg"
   xmlns="http://www.w3.org/2000/svg"
   version="1.0"
   width="206.83661"
   height="242.27692"
   id="svg2780">
  <defs
     id="defs2782" />
  <g
     transform="translate(-24.44198,-813.2715)"
     id="layer1">
    <path
       d="M 25.44198,814.2715 L 29.166278,970.73085 C 31.826484,1082.4876 223.89407,1082.4876 226.55429,970.73085 L 230.27859,814.2715 L 25.44198,814.2715 z"
       id="path3282"
       style="fill:#296bc6;fill-opacity:1;fill-rule:evenodd;stroke:#000000;stroke-width:1.99999988;stroke-linecap:butt;stroke-miterlimit:4;stroke-dashoffset:0;stroke-opacity:1" />
    <path
       d="M 113.85685,990.50009 C 108.36029,986.54327 89.181537,995.47234 88.98349,1004.794 C 88.78809,1013.991 68.107184,1018.493 61.529359,988.83483 C 54.925175,959.05777 79.304663,955.04903 89.86266,965.10888 C 100.48313,975.22826 104.20255,969.94296 104.7511,968.61101 C 105.24916,967.40164 103.1664,955.99193 91.17828,956.51778 C 79.196264,957.04336 63.881216,939.74747 85.931348,922.34073 C 107.76716,905.10317 119.96508,917.37916 120.77999,926.40052 C 121.59598,935.4339 117.78324,952.88676 124.74391,952.59167 C 131.58012,952.30185 132.17231,940.21346 131.92485,925.86768 C 131.67955,911.64655 148.59647,911.96967 160.97836,920.77962 C 173.44316,929.64858 179.49877,940.53687 172.13008,948.54901 C 164.81827,956.49931 141.00654,959.21725 144.24981,966.64813 C 147.47345,974.03405 165.56935,964.49523 174.14444,962.04522 C 182.83475,959.56229 193.23873,970.26689 186.6316,992.72987 C 180.05824,1015.0781 165.01597,1013.5606 160.10483,1009.3894 C 155.25467,1005.27 144.52352,985.24006 138.21861,990.56223 C 131.77945,995.99773 149.97704,1013.2497 151.18219,1016.9291 C 152.42429,1020.7213 151.21584,1037.9282 122.82533,1035.7305 C 94.568125,1033.5431 97.708758,1017.1082 100.13211,1013.3132 C 102.52001,1009.5737 119.75012,994.74249 113.85685,990.50009 z"
       id="path16592"
       style="color:#000000;fill:#ffffff;fill-opacity:1;fill-rule:evenodd;stroke:#000000;stroke-width:1px;stroke-linecap:butt;stroke-linejoin:miter;marker:none;marker-start:none;marker-mid:none;marker-end:none;stroke-miterlimit:4;stroke-dashoffset:0;stroke-opacity:1;visibility:visible;display:inline;overflow:visible;enable-background:accumulate" />
    <g
       transform="matrix(0.9587971,0,0,1,7.7471634,9.9749068)"
       id="g4154">
      <path
         d="M 46.168596,944.05472 C 44.082156,889.86974 79.531626,866.8722 86.566969,869.11827 C 92.760955,871.09573 96.481669,865.38396 100.40715,863.00863 C 106.29921,859.44332 116.55011,869.13684 119.98291,871.86137 C 123.10039,874.33563 128.17171,875.01458 128.15429,870.27696 C 128.12594,862.4773 131.85693,860.61701 135.24002,863.14219 C 137.06242,864.50244 138.87236,867.78639 141.73228,864.87893 C 143.36915,866.43943 148.07137,867.36011 149.53357,865.38052 C 150.92924,863.49099 154.52343,864.09841 156.14196,866.25048 C 158.64364,869.57684 161.94274,872.29635 167.23903,868.49769 C 193.91933,890.8142 202.15943,908.39662 202.40058,945.55098 C 255.1197,781.61551 -5.7602151,781.55679 46.168596,944.05472 z"
         id="path2561"
         style="fill:#feed01;fill-opacity:1;fill-rule:evenodd;stroke:#000000;stroke-width:1.02126074px;stroke-linecap:butt;stroke-linejoin:round;stroke-opacity:1" />
      <path
         d="M 97.747034,850.48988 C 93.949444,852.74779 92.100526,858.42628 93.300036,864.38018"
         id="path2392"
         style="fill:none;fill-opacity:0.75;fill-rule:evenodd;stroke:#000000;stroke-width:1.02045667;stroke-linecap:round;stroke-linejoin:miter;stroke-miterlimit:4;stroke-dasharray:none;stroke-opacity:1" />
      <path
         d="M 111.73266,854.45433 C 111.81376,852.57613 109.59151,847.42522 108.53988,845.84838 C 106.92932,848.37774 105.25221,853.56473 104.68345,858.32847 L 100.86254,856.63244"
         id="path2394"
         style="fill:none;fill-opacity:0.75;fill-rule:evenodd;stroke:#000000;stroke-width:1.02045667;stroke-linecap:round;stroke-linejoin:round;stroke-miterlimit:4;stroke-dasharray:none;stroke-opacity:1" />
      <path
         d="M 119.77158,857.48029 C 133.47917,852.06141 124.40462,863.94587 125.25518,866.58175"
         id="path2396"
         style="fill:none;fill-opacity:0.75;fill-rule:evenodd;stroke:#000000;stroke-width:1.02126074px;stroke-linecap:round;stroke-linejoin:miter;stroke-opacity:1" />
      <path
         d="M 141.73228,864.96083 C 141.73228,862.67039 141.38031,858.86222 141.73228,854.21641 C 144.47185,855.99575 146.06661,861.97397 146.10698,866.28592"
         id="path2398"
         style="fill:none;fill-opacity:0.75;fill-rule:evenodd;stroke:#000000;stroke-width:1.02126074px;stroke-linecap:butt;stroke-linejoin:miter;stroke-opacity:1" />
      <path
         d="M 144.10206,853.42873 C 142.35584,853.4154 140.48349,853.90658 138.50219,854.83357"
         id="path2400"
         style="opacity:1;color:#000000;fill:none;fill-opacity:0.75;fill-rule:evenodd;stroke:#000000;stroke-width:1.02126074px;stroke-linecap:round;stroke-linejoin:miter;marker:none;marker-start:none;marker-mid:none;marker-end:none;stroke-miterlimit:4;stroke-dasharray:none;stroke-dashoffset:0;stroke-opacity:1;visibility:visible;display:inline;overflow:visible;enable-background:accumulate" />
      <path
         d="M 103.74309,47.722897 A 2.8094954,1.3051536 0 1 1 98.124098,47.722897 A 2.8094954,1.3051536 0 1 1 103.74309,47.722897 z"
         transform="matrix(0.989165,-0.146808,0.146808,0.989165,1.7548563,821.33266)"
         id="path2402"
         style="opacity:1;color:#000000;fill:none;fill-opacity:1;fill-rule:evenodd;stroke:#000000;stroke-width:1.02126074pt;stroke-linecap:butt;stroke-linejoin:round;marker:none;marker-start:none;marker-mid:none;marker-end:none;stroke-miterlimit:4;stroke-dasharray:none;stroke-dashoffset:0;stroke-opacity:1;visibility:visible;display:inline;overflow:visible;enable-background:accumulate" />
      <path
         d="M 97.953041,56.004741 C 101.35486,55.075547 99.724321,47.85906 108.53988,41.51769"
         transform="translate(0,804.33069)"
         id="path3870"
         style="opacity:1;color:#000000;fill:none;fill-opacity:0.75;fill-rule:evenodd;stroke:#000000;stroke-width:1.02045667;stroke-linecap:round;stroke-linejoin:miter;marker:none;marker-start:none;marker-mid:none;marker-end:none;stroke-miterlimit:4;stroke-dasharray:none;stroke-dashoffset:0;stroke-opacity:1;visibility:visible;display:inline;overflow:visible;enable-background:accumulate" />
    </g>
    <path
       d="M 122.85891,14.452919 L 139.00283,59.061609 L 186.41696,60.630547 L 148.98032,89.769168 L 162.13994,135.34751 L 122.85891,108.74748 L 83.577873,135.34751 L 96.7375,89.769167 L 59.300861,60.630543 L 106.71499,59.061608 L 122.85891,14.452919 z"
       transform="matrix(1.104048,0,0,1.1041001,-10.196255,882.36167)"
       id="path16632"
       style="fill:#008442;fill-opacity:1;fill-rule:evenodd;stroke:#000000;stroke-width:0.90502316;stroke-linecap:butt;stroke-linejoin:round;stroke-miterlimit:4;stroke-dasharray:none;stroke-opacity:1" />
    <path
       d="M 111.39822,992.70655 C 105.93902,988.394 104.72992,1005.5374 93.133236,1009.2447 C 73.436999,1015.5415 74.901007,991.46413 75.279952,989.29567 C 75.637773,987.24808 57.368971,966.3062 73.813219,959.70945 C 86.617491,954.57291 98.764859,972.87422 101.66904,966.07937 C 104.5536,959.3304 85.618626,961.03636 79.866919,953.11333 C 68.092199,936.89356 92.194277,930.07648 94.445116,930.28275 C 96.829861,930.50128 109.02778,912.47848 119.94228,921.0011 C 131.0556,929.67897 116.07595,949.73453 124.90369,950.06003 C 133.85595,950.39012 119.98073,931.16315 131.95995,921.96449 C 144.01745,912.70572 154.60091,932.01804 156.15069,932.83629 C 157.64592,933.62573 180.45853,936.7337 171.9158,951.25419 C 163.31864,965.86721 143.14822,958.42065 147.028,965.61273 C 150.95998,972.90158 167.98798,950.73536 178.29418,962.13199 C 188.66225,973.59705 174.28863,987.07914 173.94869,988.82669 C 173.58036,990.72022 174.37361,1013.1989 159.44882,1010.5983 C 144.64503,1008.0189 145.38741,988.17707 139.74994,992.51926 C 134.05274,996.90746 155.71008,1004.5854 151.84073,1020.8988 C 147.99938,1037.0942 125.37434,1023.2791 123.10979,1024.9695 C 120.90644,1026.6142 101.78231,1032.5567 97.424106,1019.436 C 93.103217,1006.4276 116.93385,997.07948 111.39822,992.70655 z"
       id="path4048"
       style="color:#000000;fill:#ffffff;fill-opacity:1;fill-rule:evenodd;stroke:#000000;stroke-width:0.99921262;stroke-linecap:butt;stroke-linejoin:miter;marker:none;marker-start:none;marker-mid:none;marker-end:none;stroke-miterlimit:4;stroke-dasharray:none;stroke-dashoffset:0;stroke-opacity:1;visibility:visible;display:inline;overflow:visible;enable-background:accumulate" />
    <path
       d="M 123.03518,107.1987 L 118.34825,87.38807 L 98.722034,89.534166 L 116.11472,78.954811 L 108.00883,60.95235 L 123.44503,74.224578 L 138.06153,60.952349 L 130.20894,79.734393 L 147.34832,89.534165 L 127.05896,87.869878 L 123.03518,107.1987 z"
       transform="matrix(1.4121053,0,0,1.4126369,-48.622531,858.21091)"
       id="path16628"
       style="fill:none;fill-opacity:1;fill-rule:evenodd;stroke:#000000;stroke-width:0.70802917pt;stroke-linecap:butt;stroke-linejoin:round;stroke-opacity:1" />
    <path
       d="M 138.72305,82.515686 A 13.925185,13.925185 0 1 1 110.87268,82.515686 A 13.925185,13.925185 0 1 1 138.72305,82.515686 z"
       transform="matrix(1.5021152,0,0,1.5021152,-62.087989,849.44683)"
       id="path16624"
       style="opacity:1;color:#000000;fill:#ffffff;fill-opacity:1;fill-rule:evenodd;stroke:#000000;stroke-width:0.6657279pt;stroke-linecap:butt;stroke-linejoin:miter;marker:none;marker-start:none;marker-mid:none;marker-end:none;stroke-miterlimit:4;stroke-dasharray:none;stroke-dashoffset:0;stroke-opacity:1;visibility:visible;display:inline;overflow:visible;enable-background:accumulate" />
  </g>
</svg>

<?xml version="1.0" encoding="UTF-8"?>
<svg version="1.0" viewBox="0 0 206.84 242.28" xmlns="http://www.w3.org/2000/svg">
<g transform="translate(-24.442 -813.27)" stroke="#000">
<path d="m25.442 814.27 3.7243 156.46c2.6602 111.76 194.73 111.76 197.39 0l3.7243-156.46h-204.84z" fill="#296bc6" fill-rule="evenodd" stroke-width="2"/>
<path d="m113.86 990.5c-5.4966-3.9568-24.675 4.9722-24.873 14.294-0.1954 9.197-20.876 13.699-27.454-15.959-6.6042-29.777 17.775-33.786 28.333-23.726 10.62 10.119 14.34 4.8341 14.888 3.5021 0.49806-1.2094-1.5847-12.619-13.573-12.093-11.982 0.52558-27.297-16.77-5.2469-34.177 21.836-17.238 34.034-4.9616 34.849 4.0598 0.81599 9.0334-2.9968 26.486 3.9639 26.191 6.8362-0.28982 7.4284-12.378 7.1809-26.724-0.2453-14.221 16.672-13.898 29.054-5.0881 12.465 8.869 18.52 19.757 11.152 27.769-7.3118 7.9503-31.124 10.668-27.88 18.099 3.2236 7.3859 21.32-2.1529 29.895-4.6029 8.6903-2.4829 19.094 8.2217 12.487 30.685-6.5734 22.348-21.616 20.831-26.527 16.66-4.8502-4.1194-15.581-24.149-21.886-18.827-6.4392 5.4355 11.758 22.687 12.964 26.367 1.2421 3.7922 0.03365 20.999-28.357 18.801-28.257-2.1874-25.117-18.622-22.693-22.417 2.3879-3.7395 19.618-18.571 13.725-22.813z" color="#000000" fill="#fff" fill-rule="evenodd" stroke-width="1px"/>
<g transform="matrix(.9588 0 0 1 7.7472 9.9749)">
<path d="m46.169 944.05c-2.0864-54.185 33.363-77.183 40.398-74.936 6.194 1.9775 9.9147-3.7343 13.84-6.1096 5.8921-3.5653 16.143 6.1282 19.576 8.8527 3.1175 2.4743 8.1888 3.1532 8.1714-1.5844-0.02835-7.7997 3.7026-9.66 7.0857-7.1348 1.8224 1.3602 3.6323 4.6442 6.4923 1.7367 1.6369 1.5605 6.3391 2.4812 7.8013 0.50159 1.3957-1.8895 4.9899-1.2821 6.6084 0.86996 2.5017 3.3264 5.8008 6.0459 11.097 2.2472 26.68 22.317 34.92 39.899 35.162 77.053 52.719-163.94-208.16-163.99-156.23-1.4963z" fill="#feed01" fill-rule="evenodd" stroke-linejoin="round" stroke-width="1.0213px"/>
<path d="m97.747 850.49c-3.7976 2.2579-5.6465 7.9364-4.447 13.89" fill="none" stroke-linecap="round" stroke-width="1.0205"/>
<path d="m111.73 854.45c0.0811-1.8782-2.1412-7.0291-3.1928-8.606-1.6106 2.5294-3.2877 7.7164-3.8564 12.48l-3.8209-1.696" fill="none" stroke-linecap="round" stroke-linejoin="round" stroke-width="1.0205"/>
<path d="m119.77 857.48c13.708-5.4189 4.633 6.4656 5.4836 9.1015" fill="none" stroke-linecap="round" stroke-width="1.0213px"/>
<path d="m141.73 864.96c0-2.2904-0.35197-6.0986 0-10.744 2.7396 1.7793 4.3343 7.7576 4.3747 12.07" fill="none" stroke-width="1.0213px"/>
<path d="m144.1 853.43c-1.7462-0.01333-3.6186 0.47785-5.5999 1.4048" color="#000000" fill="none" stroke-linecap="round" stroke-width="1.0213px"/>
<path transform="matrix(.98916 -.14681 .14681 .98916 1.7549 821.33)" d="m103.74 47.723a2.8095 1.3052 0 1 1-5.619 0 2.8095 1.3052 0 1 1 5.619 0z" color="#000000" fill="none" stroke-linejoin="round" stroke-width="1.0213pt"/>
<path transform="translate(0 804.33)" d="m97.953 56.005c3.4018-0.92919 1.7713-8.1457 10.587-14.487" color="#000000" fill="none" stroke-linecap="round" stroke-width="1.0205"/>
</g>
<path transform="matrix(1.104 0 0 1.1041 -10.196 882.36)" d="m122.86 14.453 16.144 44.609 47.414 1.5689-37.437 29.139 13.16 45.578-39.281-26.6-39.281 26.6 13.16-45.578-37.437-29.139 47.414-1.5689 16.144-44.609z" fill="#008442" fill-rule="evenodd" stroke-linejoin="round" stroke-width=".90502"/>
<path d="m111.4 992.71c-5.4592-4.3126-6.6683 12.831-18.265 16.538-19.696 6.2968-18.232-17.781-17.853-19.949 0.35782-2.0476-17.911-22.989-1.4667-29.586 12.804-5.1365 24.952 13.165 27.856 6.3699 2.8846-6.749-16.05-5.043-21.802-12.966-11.775-16.22 12.327-23.037 14.578-22.831 2.3847 0.21853 14.583-17.804 25.497-9.2816 11.113 8.6779-3.8663 28.733 4.9614 29.059 8.9523 0.33009-4.923-18.897 7.0563-28.096 12.058-9.2588 22.641 10.054 24.191 10.872 1.4952 0.78944 24.308 3.8974 15.765 18.418-8.5972 14.613-28.768 7.1665-24.888 14.359 3.932 7.2888 20.96-14.877 31.266-3.4807 10.368 11.465-4.0056 24.947-4.3455 26.695-0.36833 1.8935 0.42492 24.372-14.5 21.772-14.804-2.5794-14.061-22.421-19.699-18.079-5.6972 4.3882 15.96 12.066 12.091 28.38-3.8414 16.195-26.466 2.3803-28.731 4.0707-2.2034 1.6447-21.327 7.5872-25.686-5.5335-4.3209-13.008 19.51-22.357 13.974-26.729z" color="#000000" fill="#fff" fill-rule="evenodd" stroke-width=".99921"/>
<path transform="matrix(1.4121 0 0 1.4126 -48.623 858.21)" d="m123.04 107.2-4.6869-19.811-19.626 2.1461 17.393-10.579-8.1059-18.002 15.436 13.272 14.616-13.272-7.8526 18.782 17.139 9.7998-20.289-1.6643-4.0238 19.329z" fill="none" stroke-linejoin="round" stroke-width=".70803pt"/>
<path transform="matrix(1.5021 0 0 1.5021 -62.088 849.45)" d="m138.72 82.516a13.925 13.925 0 1 1-27.85 0 13.925 13.925 0 1 1 27.85 0z" color="#000000" fill="#fff" fill-rule="evenodd" stroke-width=".66573pt"/>
</g>
</svg>
